resources/svg/file-tick.svg

<svg xmlns="http://www.w3.org/2000/svg" viewBox="0 0 15 15" fill="currentColor"><path fill-rule="evenodd" clip-rule="evenodd" d="M1 1.5C1 0.671573 1.67157 0 2.5 0H10.7071L14 3.29289V13.5C14 14.3284 13.3284 15 12.5 15H2.5C1.67157 15 1 14.3284 1 13.5V1.5ZM7.02439 10.2315L10.8763 5.82928L10.1237 5.17078L6.97568 8.76857L5.35359 7.14648L4.64648 7.85358L7.02439 10.2315Z" fill="black"/></svg>

<svg xmlns="http://www.w3.org/2000/svg" viewBox="0 0 15 15" fill="currentColor"><path fill-rule="evenodd" clip-rule="evenodd" d="M1 1.5A1.5 1.5 0 012.5 0h8.207L14 3.293V13.5a1.5 1.5 0 01-1.5 1.5h-10A1.5 1.5 0 011 13.5v-12zm6.024 8.732l3.852-4.403-.752-.658-3.148 3.598-1.622-1.623-.708.708 2.378 2.378z" fill="currentColor"/></svg>
